X:1
T:Compatite al mio gran fallo
T:Barbara Strozzi
T:Source : Ariette a voce sola---Opera sesta---Venetia---F.Magni---1657. Editor : André Vierendeels (07/08/16).
T:Notes : Original clefs : C1, F4 Editorial accidentals above the staff Original note values have been halved in  6/4 measures Dotted brackets indicate black notes Figures in BC are notated in original print m37 in S : "G" notated as quarter in original print
T:Compatite al mio gran fallo
T:©
T:©
T:©
T:©
T:©
T:©
T:©
T:©
T:©
T:©
T:©
T:©
C:Barbara Strozzi
Z:©
%%score 1 { 2 | 3 }
L:1/8
Q:1/4=98
M:4/4
K:D
V:1 treble nm="Soprano" snm="S"
V:2 treble nm="MusicXML Part"
V:3 bass 
V:1
 d2 c2 d2 c2 | B2 ^A2 Bc/d/ c/4c/4c/4c/4B- | ^A4 f3 g/f/ | e2 e2 d3 e/d/ | =c3 d/c/ B2 Bg | %5
w: Com- pa- ti- te,|com- pa- ti- * * * * * * te|_ al mi- *|* o, al mi- *|* * * * o gran|
 d2 c2 B4 | d2 c2 d2 c2 | f2 ^A2 B2 g2 | ^A2 f4 d2- | d2 g2 c2 B/c/d/e/ | d d2 c- d2 ff | %11
w: fal- * lo,|com- pa- ti- te,|com- pa- ti- *|te oc- chi,|_ oc- chi a- * * *|mo- ro- si, _ al- tri|
 B2 ee ^A3 c | BA ^GA G4 | F4 d2 c2 | d2 c2 B2 ^A2 | Bc/d/ c/4c/4c/4c/4B- ^A4 | f3 g/f/ e2 e2 | %17
w: no, al- tri no che|voi _ non _ sal-|lo, com- pa-|ti- te, com- pa-|ti- * * * * * * te _|al mi- * * o,|
 d3 e/d/ =c2 d/e/d/c/ | B2 Bg d2 c2 | B8- | B8- | B4 z4 | z2 dd d2 F2- | FFFG A- G2 G | %24
w: al mi- * * * * * *|* o gran fal- *|.lo.|_||com- pa- ti- *|* te, com- pa- ti- * te,|
 z2 dd ^d>d de | ed=cB AGFD | =c4 B2 BG | EEe=c AE ^D2- | D2 E2 E3 ^D- | E4 z4 | z8 | B2 B2 B2 B2 | %32
w: che son giu- di- ci pie-|to- * s'i Mi- nos- si'e Ra- da-|man- ti de gl'er-|ro- ri, de gl'er- ro- ri de|_ gl'a- man- ti,|_||si rac- cor- di|
 =cB/c/ Ad BA/B/ Gc | AG/A/ FB GF/G/ E2 | ef/g/ f/4f/4f/4f/4e ^d3 c | B8 |[M:9/8] z GA BB=c dcB | %37
w: la _ _ _ pie- ta, _ _ _ _|_ _ _ _ _ _ _ _ _|la _ _ _ _ _ _ _ pie- ta,|_|che l'a- mar e l'er- ra- re in-|
 BAB GBc def | gB c dcd GGA | BB=c def dcd | BBc dcB ^ABc | dcd B3 z3 |[M:4/4] B2 B2 B2 B2 | %43
w: sie- * me và _ _ _ _ _|_ in- sie- * me và, che l'a- *|mar e l'er- ra- re in- sie- * me|va, che l'a- mar e l'er- ra- re in|sie- * me va,|si rac- ror- di|
 =cB/c/ Ad BA/B/ G2 |[M:9/8] z GA BB=c def | dcd BBcdcB | ^A Bc dcd BdB | =cdA B BFGGD | %48
w: la _ _ _ pie- ta _ _ _|che m'a- mar e l'er- ra- re in|sie- * me và _ _ _ _ _|_ in _ sie- * me va, che l'a-|mar e l'er- ra _ _ _ _ _|
 E FG GFG EGA | B=cd e FG GFG | E6 z3 | z3 z3 z3 |[M:4/4] G2 F2 G2 F2 | %53
w: _ in _ sie- * me va _ _|_ _ _ _ in- * sie- * me|và.||Com- pa- ti- te,|
 E2 ^D2 EF/G/ F/4F/4F/4F/4E- | ^D2 z2 d2 d2 | d2 c2 B2 ^A2 | Bc/d/ c/4c/4c/4c/4B- ^A4 | %57
w: com- pa- ti- * * * * * * te,|_ com- pa-|ti- te, com- pa-|ti- * * * * * * te, _|
 f3 g/f/ e2 e2 | d3 e/d/ =c2 d/e/d/c/ | B2 Bg d2 c2 | B4 d2 c2 | d2 c2 f2 ^A2 | B2 e2 ^A2 f2- | %63
w: al mi- * * o,|al mi- * * * * * *|* o fran fal- *|lo, com- pa-|ti- te, com- pa-|ti- * te coc-|
 f2 d4 g2 | c2 B/c/d/e/ d d2 c- | d2 ff B2 ee | ^A3 c BA ^GA | ^G4 F4 | d2 c2 d2 c2 | %69
w: * chi, oc-|chi'a- mo- * * * * ro- si,|_ al- tri no, al- tri|no vhe voi _ non _|sal- lo,|com- pa- ti- te,|
 B2 ^A2 Bc/d/ c/4c/4c/4c/4B- | ^A4 f4 | e2 e2 d3 e/d/ | =c3 d/c/ B2 Bg | d2 c2 B4 | %74
w: com- pa- ti- * * * * * * te,|_ al|mi- o al mi- *|* * * * o gran|fal- * lo.|
[M:6/4] z2 B4 z2 A4 | z2 G4 z2 F2 E2 | F2 E4 D2 A4 | d6 B2 A2 B2 | G2 F2- G2 A2 G2 F2 | %79
w: Fer- mi,|fer- mi s|so- spi- ri no,|no, no non vi|dic chia- * ra- * *|
 F6 G2 F2 G2 | E6 =c2 B2 c2 | A6 d2 =c2 d2 | G2 A2 B2 B2 A4 | G2 B4 z2 A4 | z2 G4 z2 F2 E2 | %85
w: te ch'u- na cru-|del, ch'u- na cru-|del, ch'u- na cru-|del a- * ma- *|te, fer- mi,|fer- mi'o so-|
 F2 E4 D2 f2 e2 | f2 c4 z2 d2 c2 | d2 A4 z2 B4 | z2 A4 z2 G4 | z2 F4 A2 G2 F2 | E2 D2 E2 F2 E4 | %91
w: spi- * ri, se pa-|ti- te non glel-|di- te, no,|no, no,|no no non vi|dic- chia- * ra _|
"^ADAGIO" D2 f2 e2 f2 c4 | z2 d2 d2 d2 A4 | z2 B4 z2 A4 | A2 G2 F2 E2 D2 E2 | F2 E4 D2 A4 | %96
w: te, se pa- ti- te,|non gl'el di- te,|no, no,|no, non mi dic- chia- *|ra- * te, no|
 z2 d4 z2 B4 | z2 c4 z2 ^A4 | d2 c2 B2 ^A2 B4 | B2 c^A Bc B2 d4 | f2 e2 d2 c2 dc de | d2 c4 B6 |] %102
w: no, no,|no, no|no non vi dic- chia-|ra- * * * * te, no,|no, non vi dic- chia- * * *|ra- * te.|
V:2
 z8 | z8 | z8 | z8 | z8 | z8 | z8 | z8 | z8 | z8 | z8 | z8 | z8 | z8 | z8 | z8 | z8 | z8 | z8 | %19
 z8 | z8 | z8 | z8 | z8 | z8 | z8 | z8 | z8 | z8 | z8 | z8 | z8 | z8 | z8 | z8 | z8 |[M:9/8] z9 | %37
 z9 | z9 | z9 | z9 | z9 |[M:4/4] z8 | z8 |[M:9/8] z9 | z9 | z9 | z9 | z9 | z9 | z9 | z9 | %52
[M:4/4] z8 | z8 | z8 | z8 | z8 | z8 | z8 | z8 | z8 | z8 | z8 | z8 | z8 | z8 | z8 | z8 | z8 | z8 | %70
 z8 | z8 | z8 | z8 |[M:6/4] z12 | z12 | z12 | z12 | z12 | z12 | z12 | z12 | z12 | z12 | z12 | z12 | %86
 z12 | z12 | z12 | z12 | z12 | z12 | z12 | z12 | z12 | z12 | z12 |"^BC" z12 | z12 | z12 | z12 | %101
 z12 |] %102
V:3
"^BC" B,2 ^A,2 B,2 A,2 |"^-natural" G,2 F,2 G,4 | F,4 F,E,F,D, | G,F,G,E, B,A,B,G, | %4
"^BC" A,G,A,F, G,F,G,E, | F,E,F,F,, B,,4 | B,2 ^A,2 B,2 A,2 | B,2 F,2 G,4 |"^BC" F,4 B,,4 | %9
"^4  6" G,,4 G,,4 | A,,4 D,4 | G,4 F,4 |"^BC" B,4 C4 | F,4 B,2 ^A,2 | B,2 ^A,2 G,2 F,2 | G,4 F,4 | %16
"^BC" F,E,F,D, G,F,G,E, | B,A,B,G, A,G,A,F, | G,F,G,E, F,E,F,F,, | B,^A,B,F, G,F,G,^D, | %20
"^BC" E,F,G,E, F,E,F,F,, | B,,4 z4 | G,,8- | G,,8 |"^BC" G,4 F,4 | E,2 A,2 F,2 D,B,, | %26
"^6 -natural" A,,4 G,,4- |"^BC" G,,2 C,6 | A,,4 B,,4 | E,E,=C,A,, E,B,G,^D, | E,B,,=C,A,, B,,4 | %31
 E,2 D,2 =C,2 B,,2 |"^BC""^-natural" A,,2 D,2 G,2 E,2 | F,2 ^D,2 E,2 =C,2 | A,,4 B,,4- | B,,8 | %36
[M:9/8]"^BC" E,6 B,, =C,2 |"^#" D,3 G,3 F,3 | E,3 D,3 G,,3 |"^BC" G,3 F,2 E, F,3 | B,2 A, G,3 F,3 | %41
 E, F,2 B,,3 z3 |[M:4/4]"^BC" E,2 D,2 =C,2 B,,2 |"^-natural" A,,2 D,2 G,,4 |[M:9/8] G,,6 F,2 E, | %45
"^BC" F,3 B,2 A, G,3 | F,3 E, F,2 B,, B,2 | A, F,2 G, ^D,2 E, B,,2 |"^BC" =C, A,,2 B,,3 E,3 | %49
 D,3 =C, A,,2 B,,3 | E,E,F, G,A,B, =CB,A, |"^BC" B, B,,2 E,3 z3 |[M:4/4] E,2 ^D,2 E,2 D,2 | %53
 =C,2 B,,2 C,4 |"^#" B,,4 B,2 ^A,2 |"^BC" B,2 A,2 G,2 F,2 | G,4 F,4 | F,E,F,D, G,F,G,E, | %58
 B,A,B,G, A,G,A,F, |"^BC" G,F,G,E, F,E,F,F,, | B,,4 B,2 ^A,2 | B,2 ^A,2 B,2 F,2 | G,4 F,4 | %63
 B,,4 G,,4 |"^BC""^4  6" G,,4 A,,4 | D,4 G,4 | F,4 B,4 | C4 F,4 | %68
"^BC""^-natural" B,2 ^A,2 B,2 A,2 | G,2 F,2 G,4 | F,4 F,E,F,D, | G,F,G,E, B,A,B,G, | %72
"^BC" A,G,A,F, G,F,G,E, | F,E,F,F,, B,,4 |[M:6/4] G,,6 D,6 | E,6 F,4 G,2 | A,6 D,4 E,2 | %77
"^BC" F,2 E,2 F,2 G,6 | E,2 D,2 E,2 A,,6 | D,2 =C,2 D,2 B,,6 | =C,2 B,,2 C,2 A,,6 | %81
 D,2 =C,2 D,2 B,,6 |"^BC" =C,6 D,6 | G,,6 D,6 | E,6 F,4 G,2 | A,6 D,2 D2 C2 | D2 A,4 z2 B,2 A,2 | %87
"^BC" B,2 F,4 G,6 | D,6 E,6 | F,6 D,2 E,2 F,2 | G,6 A,6 | D,2 D2 C2 D2 A,4 | %92
"^BC" z2 B,2 A,2 B,2 F,4 | G,6 D,6 | D,2 E,2 F,2 G,6 | A,6 D,4 E,2 | F,2 E,2 F,2 G,2 F,2 G,2 | %97
 E,2 D,2 E,2 F,4 z2 | B,2 ^A,2 G,2 F,2 G,4 | F,6 B,,6 | B,,2 C,2 D,2 E,2 F,4 | E,2 F,4 B,,6 |] %102

